src/governance-app-frontend/public/governance-logo.svg

<svg viewBox="0 0 46 22" xmlns="http://www.w3.org/2000/svg">
  <path d="M45.9992 11C45.9992 4.93463 40.9792 0 34.8188 0C32.2505 0 29.4539 1.33375 26.4911 3.96324C25.0903 5.2064 23.8757 6.5361 22.9637 7.60537C19.7613 3.99235 15.4664 0 11.1804 0C5.99986 0 1.4822 3.63324 0.306661 8.44735C0.308259 8.44331 0.309856 8.43765 0.311453 8.43199C0.309856 8.43765 0.308259 8.4425 0.306661 8.44735C0.106213 9.2675 0 10.1224 0 11C0 17.0654 4.94012 22 11.1005 22C13.6688 22 16.5453 20.6663 19.5081 18.0368C20.9089 16.7936 22.1235 15.4639 23.0355 14.3946C26.2379 18.0076 30.5336 22 34.8196 22C40.0001 22 44.5178 18.3668 45.6933 13.5535C45.8938 12.7333 46 11.8784 46 11.0008L45.9992 11ZM23.823 7.59404C24.8699 6.39779 25.9081 5.34147 26.9127 4.45015C29.7557 1.92662 32.4159 0.647059 34.8188 0.647059C40.6318 0.647059 45.3603 5.29132 45.3603 11C45.3603 11.8007 45.2653 12.6007 45.0768 13.3788C45.0465 13.4685 44.6592 14.5426 43.5555 15.5868C42.122 16.9432 40.179 17.6315 37.78 17.6324C40.3603 16.4968 42.1651 13.9457 42.1651 11C42.1651 6.99551 38.8693 3.73838 34.8188 3.73838C33.24 3.73838 31.3074 4.74375 29.0721 6.72779C28.0667 7.62074 27.0485 8.67059 25.9736 9.92507L25.5519 10.4152L23.3917 8.07529L23.823 7.59485V7.59404ZM20.0017 11.1084C19.1488 12.134 17.9189 13.5316 16.5054 14.7861C13.8716 17.1244 12.1594 17.6146 11.1804 17.6146C7.48605 17.6146 4.47294 14.647 4.47294 11C4.47294 7.35301 7.48286 4.40809 11.1804 4.38544C11.3145 4.38544 11.4766 4.39919 11.6731 4.43478C13.5785 5.17485 15.2804 6.35574 16.3082 7.30853C17.1347 8.07529 18.6321 9.64441 20.0009 11.1076L20.0017 11.1084ZM22.1762 14.406C21.1285 15.6022 20.0911 16.6585 19.0865 17.5499C16.2834 20.0378 13.5218 21.3529 11.1005 21.3529C8.29343 21.3529 5.66126 20.2732 3.68712 18.3126C1.72098 16.3601 0.638878 13.7629 0.638878 11C0.638878 10.1993 0.73471 9.39853 0.92238 8.62125C0.954324 8.52824 1.34164 7.45574 2.44371 6.41316C3.87719 5.05677 5.82018 4.36846 8.21916 4.36765C5.6389 5.50324 3.83407 8.05427 3.83407 11C3.83407 15.0045 7.12988 18.2616 11.1804 18.2616C12.7592 18.2616 14.6918 17.2563 16.9271 15.2722C17.9325 14.3793 18.9507 13.3294 20.0256 12.0749L20.4465 11.584C20.4465 11.584 22.5747 13.8891 22.5979 13.915L22.1754 14.406H22.1762ZM25.9975 10.8916C26.8504 9.86603 28.0803 8.46838 29.4938 7.2139C32.1276 4.87559 33.8398 4.38544 34.8188 4.38544C38.5131 4.38544 41.5263 7.35301 41.5263 11C41.5263 14.647 38.5163 17.5919 34.8188 17.6146C34.6847 17.6146 34.5226 17.6008 34.3253 17.5652C34.3269 17.5652 34.3277 17.566 34.3293 17.5668C32.4222 16.8268 30.7188 15.6451 29.6902 14.6915C28.8637 13.9247 27.3663 12.3556 25.9967 10.8924L25.9975 10.8916ZM45.6885 13.5648C45.6901 13.5607 45.6909 13.5559 45.6925 13.5526C45.6917 13.5559 45.6901 13.5607 45.6885 13.5648Z" fill="currentColor"/>
</svg>

<svg xmlns="http://www.w3.org/2000/svg" viewBox="0 0 46 22"><path fill="currentColor" d="M46 11c0-6.065-5.02-11-11.181-11-2.569 0-5.365 1.334-8.328 3.963-1.4 1.243-2.615 2.573-3.527 3.642C19.76 3.992 15.466 0 11.18 0 6 0 1.482 3.633.307 8.447l.004-.015A10.74 10.74 0 0 0 0 11c0 6.065 4.94 11 11.1 11 2.569 0 5.445-1.334 8.408-3.963 1.4-1.243 2.616-2.573 3.527-3.642C26.238 18.008 30.534 22 34.82 22c5.18 0 9.698-3.633 10.873-8.447.2-.82.307-1.675.307-2.552V11ZM23.822 7.594a35.255 35.255 0 0 1 3.09-3.144C29.756 1.927 32.416.647 34.819.647 40.632.647 45.36 5.291 45.36 11c0 .8-.095 1.6-.283 2.379-.03.09-.418 1.164-1.521 2.208-1.434 1.356-3.377 2.044-5.776 2.045 2.58-1.135 4.385-3.686 4.385-6.632 0-4.004-3.296-7.262-7.346-7.262-1.579 0-3.512 1.006-5.747 2.99-1.005.893-2.023 1.943-3.098 3.197l-.422.49-2.16-2.34.431-.48v-.001Zm-3.821 3.514c-.853 1.026-2.083 2.424-3.497 3.678-2.633 2.338-4.346 2.829-5.325 2.829-3.694 0-6.707-2.968-6.707-6.615 0-3.647 3.01-6.592 6.707-6.615.135 0 .297.014.493.05 1.905.74 3.607 1.92 4.635 2.874.827.766 2.324 2.335 3.693 3.799Zm2.174 3.298a35.382 35.382 0 0 1-3.09 3.144c-2.803 2.488-5.564 3.803-7.985 3.803-2.808 0-5.44-1.08-7.414-3.04A10.237 10.237 0 0 1 .922 8.62c.032-.093.42-1.165 1.522-2.208C3.877 5.057 5.82 4.368 8.219 4.368 5.64 5.503 3.834 8.054 3.834 11c0 4.005 3.296 7.262 7.346 7.262 1.58 0 3.512-1.006 5.747-2.99 1.006-.893 2.024-1.943 3.099-3.197l.42-.491 2.152 2.331-.423.491h.001Zm3.822-3.514c.852-1.026 2.082-2.424 3.496-3.678 2.634-2.338 4.346-2.829 5.325-2.829 3.694 0 6.707 2.968 6.707 6.615 0 3.647-3.01 6.592-6.707 6.615-.134 0-.296-.014-.494-.05l.004.002c-1.907-.74-3.61-1.922-4.639-2.876-.826-.766-2.324-2.335-3.693-3.799Zm19.69 2.673c.002-.004.003-.01.005-.012a.107.107 0 0 1-.005.012Z"/></svg>
